X:1
T:James Gibb editions
T:Hosanna to the living Lord - Barnby
%%score [ ( 1 2 ) ( 3 4 ) ]
L:1/8
Q:1/4=80
M:4/4
K:D
V:1 treble nm="Midi_74"
V:2 treble 
V:3 bass nm="Midi_74"
V:4 bass 
V:1
"^Reginald Heber\n(1783-1826)""^Hosanna to the living Lord""^Joseph Barnby\n(1838-96)""^88. 88. 47" A | %1
w: |
 d2 A2 F3 G | A2 E2 F2 || A2 | d2 A2 F3 ^G | A2 ^G2 F2 || A2 | A3 A B2 B2 | e2 d2 c2 || %9
w: ||||||||
[M:4/4]"^-" c2 | d2 c2 F2 !courtesy!=A2 | A2 ^G2 A2 A2 || d4 d4 | d6 x2 | A2 x4 || A2 B2 c2 d2 | %16
w: ||* * * Ho-|san- na|Lord!|Ho-|san- na in the|
 e8 | d6 x2 | B4 A4 || x8 |] %20
w: high-|est.|A- men.||
V:2
 F | F2 E2 D2 D2 | D2- C2 D2 || E2 | D2 E2 F2 F2 | F2 ^E2 F2 || F2 | G3 G G2 G2 | G2 G2 G2 || %9
[M:4/4] F2 | F2 F2 F2 F2 | E2 E2 E2 x2 || A2 x6 | A4 F4 | G6 || G2 x6 | A2 A2 ^G2 G2 | =G8 | %18
 F6 x2 || G4 F4 |] %20
V:3
 A, | A,2 A,2 A,3 G, | F,2 A,2 A,2 || A,2 | F,2 A,2 A,2 D2 | C3 B, A,2 ||"^-" C2 | %7
 C3"^-" C B,2 B,2 | A,2 B,2"^-" E2 ||[M:4/4]"^-" E2 | D2 ^A,2 B,2"^-" =C2 | %11
"^1 Hosanna to the living Lord!\nHosanna to the th’Incarnate Word!\nTo Christ, Creator, Saviour, King,\nLet earth, let heaven, hosanna sing.\n\n2 O Saviour, with protecting care,\nAbide in this Thy house of prayer,\nWhere we Thy parting promise claim,\nAssembled in Thy sacred name.\n\n3 But, chiefest, in our cleansed breast,\nEternal, bid Thy Spirit rest\nAnd make our secret soul to be\nA temple pure and worthy Thee.\n\n4 So in the last and dreadful Day,\nWhen earth and heav'n shall melt away,\nThy flock, redeemed from sinful stain,\nShall swell the sound of praise again." B,"^-"C D2 C2 x2 || %12
 C2 x6 | D4 =C4 | B,6 || C2 x6 | D2 F2 E2 D2 | (D4 C4) | D6 x2 || D4 D4 |] %20
V:4
 D, | D,2 C,2 D,2 B,,2 | A,,2 A,,2 D,2 || C,2 | B,,2 C,2 D,2 B,,2 | C,2 C,2 F,2 || F,2 | %7
 E,3 E, D,2 D,2 | C,2 B,,2 A,,2 ||[M:4/4] ^A,,2 | B,,2 C,2 D,2 ^D,2 | E,2 E,2 A,,2 x2 || %12
 !courtesy!=G,2 x6 | F,4 D,4 | G,6 || E,2 x6 | F,2 D,2 B,,2 E,2 | A,,8 | D,6 x2 || G,,4 D,4 |] %20

